X:15995
T:Steirischer Tanz II
C:Trad.
N:aus einer Mlltonne in Liezen gerettet von Herrn Ernst Stradal, Irdning
I:140
M:3/4
L:1/8
K:F
af |: (fc) ~c2 (Ac) | (Gc) ~c2 (be) | (ec) ~c2 (BE) | (FA) ~c2 (af) |
(fc) ~c2 (Ac) |  (Gc) ~c2 (be) | (ec) ~c2 (Be) |1 (f2) z2 (af) :|2 (f2) z2 (ec) |
K:C
(cG) ~G2 (EG) | (DG) ~G2 (fA) | (BG) ~G2 (FB) | (CG) ~G2 (ec) |
(cG) ~G2 (EG) | (DG) ~G2 (fB) | (BG) ~G2 (FB) | c2 z2 a"D.C."f |]
